originals/zen.svg

<?xml version="1.0" encoding="UTF-8"?>
<svg width="40px" height="40px" viewBox="0 0 40 40" version="1.1" xmlns="http://www.w3.org/2000/svg" xmlns:xlink="http://www.w3.org/1999/xlink">
    <title>zen</title>
    <g id="zen" stroke="none" stroke-width="1" fill="none" fill-rule="evenodd">
        <rect fill="#000000" x="0" y="0" width="40" height="40"></rect>
        <g id="Horizen_logomark" fill="#FFFFFF" fill-rule="nonzero">
            <path d="M36,8.30534351 L36,8.30534351 L32.7633588,13.3435115 C33.7709924,15.2977099 34.3206107,17.5267176 34.3206107,19.8778626 C34.3206107,27.8778626 27.8473282,34.3206107 19.8778626,34.3206107 C17.5267176,34.3206107 15.3282443,33.7709924 13.3740458,32.7633588 L8.30534351,36.0305344 C11.5725191,38.351145 15.5419847,39.7557252 19.8473282,39.7557252 C30.8091603,39.7557252 39.7251908,30.870229 39.7251908,19.8778626 C39.7251908,15.5419847 38.351145,11.5725191 36,8.30534351 Z" id="Path"></path>
            <path d="M19.8778626,29.8015267 C24.7633588,29.8015267 28.8244275,26.2900763 29.6793893,21.648855 C28.1221374,21.3129771 26.5343511,21.129771 24.8854962,21.129771 C19.9389313,21.129771 15.3282443,22.7175573 11.6030534,25.4045802 C13.3740458,28.0610687 16.4274809,29.8015267 19.8778626,29.8015267 Z" id="Path"></path>
            <path d="M24.7633588,19.3282443 C26.5038168,19.3282443 28.1832061,19.5114504 29.8320611,19.8778626 L29.8320611,19.8778626 C29.8320611,14.3816794 25.3740458,9.89312977 19.8473282,9.89312977 C14.351145,9.89312977 9.89312977,14.351145 9.89312977,19.8778626 C9.89312977,20.3358779 9.92366412,20.7633588 9.98473282,21.221374 C9.98473282,21.221374 9.98473282,21.221374 9.98473282,21.221374 C7.48091603,23.1450382 6.29007634,24.6412214 6.22900763,24.7022901 C5.70992366,23.2061069 5.40458015,21.5877863 5.40458015,19.9083969 C5.40458015,11.9083969 11.8778626,5.46564885 19.8473282,5.46564885 C22.1984733,5.46564885 24.3969466,6.01526718 26.351145,7.02290076 L31.389313,3.75572519 C28.1526718,1.3740458 24.1526718,0 19.8778626,0 C8.88549618,0 0,8.88549618 0,19.8778626 C0,24.3053435 1.4351145,28.3664122 3.8778626,31.6641221 C4.82442748,29.9541985 5.95419847,28.3969466 7.26717557,26.9923664 C7.26717557,26.9923664 9.22137405,24.9465649 10.7175573,23.9083969 C14.6870229,21.0076336 19.5419847,19.3282443 24.7633588,19.3282443 Z" id="Path"></path>
        </g>
    </g>
</svg>

<svg xmlns="http://www.w3.org/2000/svg" width="40" height="40" viewBox="0 0 40 40"><g fill="none" fill-rule="evenodd"><path fill="#000" d="M0 0h40v40H0z"/><g fill="#FFF" fill-rule="nonzero"><path d="m36 8.305-3.237 5.039c1.008 1.954 1.558 4.183 1.558 6.534 0 8-6.474 14.443-14.443 14.443a14.1 14.1 0 0 1-6.504-1.558l-5.069 3.268c3.268 2.32 7.237 3.725 11.542 3.725 10.962 0 19.878-8.886 19.878-19.878 0-4.336-1.374-8.305-3.725-11.573"/><path d="M19.878 29.802c4.885 0 8.946-3.512 9.801-8.153a22.68 22.68 0 0 0-18.076 3.756 9.92 9.92 0 0 0 8.275 4.397"/><path d="M24.763 19.328c1.74 0 3.42.183 5.07.55 0-5.496-4.459-9.985-9.986-9.985-5.496 0-9.954 4.458-9.954 9.985 0 .458.03.885.092 1.343-2.504 1.924-3.695 3.42-3.756 3.481a14.6 14.6 0 0 1-.824-4.794c0-8 6.473-14.442 14.442-14.442 2.351 0 4.55.55 6.504 1.557l5.038-3.267A19.38 19.38 0 0 0 19.878 0C8.885 0 0 8.885 0 19.878a19.7 19.7 0 0 0 3.878 11.786 23.4 23.4 0 0 1 3.39-4.672s1.953-2.045 3.45-3.084a23.7 23.7 0 0 1 14.045-4.58"/></g></g></svg>
